X:1
T:Dragicevic, 87.87 D
T:Dragicevic, 87.87 D
T:John Robson Sweney, 1882
T:Public Domain Courtesy of the Cyber Hymnal™
C:John Robson Sweney, 1882
Z:Public Domain
Z:Courtesy of the Cyber Hymnal™
%%score ( 1 2 ) ( 3 4 )
L:1/8
Q:1/4=95
M:3/4
K:Ab
V:1 treble 
V:2 treble 
V:3 bass 
V:4 bass 
V:1
 [CA]>[DB] | [Ec]3 [CA] [DB]>[Ec] | [DB] [CA]3 [EA]>[EG] | [DF]3 [FB] [FA]>[DF] | [CE]4 [CA]>[CA] | %5
 [EB]3 E [EA]>[EB] | [Ec] [Ec]3 [Ae]>[Ae] | [A=d]3 [=DB] [DA]>[DF] | E4 EE | [Ed]3 [EB] [DF]>[DG] | %10
 [DB] [CA]3 [Ec]>[Ed] | [Ee]3 [Af] [Ae]>[Ac] | [GB]4 [Ae]>[Ed] | [Ec]3 [Ee] [EA]>E | %14
 [DF] [FA]3 [FB][Fd] | [Ec]3 [EA] [Ec]>[DB] | [CA]4 |] %17
V:2
 x2 | x6 | x6 | x6 | x6 | x3 E x2 | x6 | x6 | E4 EE | x6 | x6 | x6 | x6 | x11/2 E/ | x6 | x6 | %16
 x4 |] %17
V:3
 [A,,E,]>[A,,E,] | [A,,A,]3 [A,,E,] E,>E, | [A,,E,] [A,,E,]3 [C,A,]>[C,A,] | %3
 [D,A,]3 [D,D] [D,D]>[D,A,] | [A,,A,]4 [A,,E,]>[A,,A,] | [E,G,]3 [D,G,] [C,A,]>[B,,G,] | %6
 [A,,A,] [A,,A,]3 [A,C]>[A,C] | B,3 [B,,F,] [B,,F,]>[B,,A,] | [E,G,]4 E,E, | %9
 [E,G,]3 [E,G,] [E,A,]>[E,B,] | [A,,A,] [A,,A,]3 A,>[A,B,] | [A,C]3 [A,D] [A,C]>[A,E] | %12
 E4 [C,A,]>[B,,G,] | [A,,A,]3 [A,,C] [A,,C]>[C,A,] | [D,A,] [D,D]3 [D,D][D,A,] | %15
 [E,A,]3 [E,C] [E,A,]>[E,G,] | [A,,E,]4 |] %17
V:4
 x2 | x4 E,>E, | x6 | x6 | x6 | x6 | x6 | B,3 x3 | x4 E,E, | x6 | x4 A,3/2 x/ | x6 | (E,3 D,) x2 | %13
 x6 | x6 | x6 | x4 |] %17

